assets/MarketChannelLogos/payu.svg

<svg xmlns="http://www.w3.org/2000/svg" width="620" height="595" fill="none"><g clip-path="url(#a)"><path fill="#fff" d="M310.6 595.3C146.3 595.3 13 462 13 297.6 13 133.3 146.3 0 310.6 0 475 0 608.3 133.3 608.3 297.6c0 164.4-133.3 297.7-297.7 297.7"/><path fill="#A6C307" fill-rule="evenodd" d="M490.672 185.372a4.074 4.074 0 0 0-.921.923l-.371.551v15.427l.369.556c.202.305.695.721 1.094.923.721.364.783.367 7.953.367 5.735 0 7.337-.046 7.76-.223.693-.29 1.361-1.098 1.579-1.909.114-.425.157-3.129.126-7.889l-.047-7.243-.405-.592a3.582 3.582 0 0 0-1-.928c-.577-.324-.834-.335-8.091-.335h-7.496zm19.825 19.05c-.359.165-.923.601-1.255.969-1.116 1.242-1.11 1.166-1.108 12.607.001 5.624.048 10.502.104 10.841.177 1.075 1.012 2.235 2.014 2.8l.897.506 10.579.046c11.763.052 11.673.059 12.924-1.014a4.348 4.348 0 0 0 1.019-1.394c.353-.822.354-.85.309-11.909l-.046-11.084-.493-.8a4.21 4.21 0 0 0-1.292-1.294l-.798-.495-11.101-.039c-10.464-.037-11.138-.022-11.753.26m-36.061 27.976c-1.285.411-2.484 1.467-3.106 2.737-.432.88-.46 1.074-.512 3.505l-.055 2.574h-2.974c-9.969 0-13.76 2.005-15.136 8.007l-.356 1.553-.098 37.748c-.09 34.549-.121 37.852-.372 38.97-1.955 8.706-7.716 12.53-19.681 13.06-9.504.422-16.583-1.103-20.442-4.404-2.453-2.097-3.784-4.401-4.716-8.161-.343-1.387-.344-1.447-.446-39.138-.094-34.376-.127-37.868-.375-39.092-1.016-5.005-3.334-7.154-8.806-8.166-1.804-.333-13.983-.492-16.881-.22-7.307.686-10.241 3.326-10.942 9.846-.234 2.176-.235 72.105-.001 75.71.865 13.339 5.611 24.077 14.017 31.717 8.566 7.786 20.359 12.261 36.199 13.736 3.832.357 14.492.406 18.263.085 16.888-1.44 29.253-6.212 37.962-14.648 7.168-6.943 11.377-15.785 12.826-26.941.489-3.765.571-8.689.574-34.706l.002-26.18 7.46-.048c7.417-.048 7.465-.051 8.216-.426 1.222-.609 2.038-1.421 2.621-2.609l.537-1.092V236.23l-.432-.923a5.788 5.788 0 0 0-2.724-2.73l-.921-.432-14.349-.034c-13.858-.033-14.384-.023-15.352.287m-368.738 8.824c-6.198.343-10.747 1.957-13.98 4.961-1.448 1.345-2.41 2.69-3.402 4.754-.937 1.951-1.351 3.269-1.898 6.047l-.355 1.797-.052 53.028c-.032 32.322.007 53.41.1 54.008.432 2.78 1.66 4.23 4.178 4.935 1.102.309 5.84.46 7.59.242 2.629-.327 4.154-1.203 4.997-2.871.853-1.686.853-1.7.86-23.509l.005-20.222h18.883c11.413 0 19.75-.067 21.075-.169 10.329-.792 18.103-3.328 24.207-7.896 1.703-1.275 4.3-3.902 5.652-5.718 5.223-7.013 7.794-17.365 7.412-29.849-.412-13.493-3.775-22.823-10.583-29.364-6.64-6.378-16.072-9.619-29.631-10.18-4.388-.182-31.746-.177-35.058.006Zm365.129 12.264.046 12.322.424.906c.837 1.789 2.133 2.773 4.065 3.087.608.099 3.775.172 7.466.173l6.41.001-.062-9.846c-.061-9.515-.075-9.891-.422-11.218-1.187-4.541-3.733-6.552-9.32-7.363-.673-.097-2.895-.224-4.938-.281l-3.714-.103zm-362.316 4.803c-2.707.601-4.116 2.188-4.601 5.184-.107.661-.167 8.735-.167 22.646l-.002 21.618 19.69-.058c21.689-.063 21.12-.038 25.444-1.111 4.058-1.006 6.703-2.395 9.002-4.726 2.058-2.087 3.251-4.3 4.158-7.715 1.512-5.694 1.543-15.844.066-21.741-2.075-8.288-6.845-12.355-16.279-13.882-2.162-.35-2.603-.359-19.252-.399-14.022-.034-17.221-.002-18.059.184Zm103.584 11.54c-6.27.297-14.284 1.399-17.284 2.377-2.355.767-3.701 1.919-4.327 3.702-.288.82-.371 1.511-.44 3.645-.128 3.985.3 5.809 1.66 7.065 1.376 1.27 2.887 1.368 7.265.471 9.076-1.86 21.692-2.432 29.181-1.324 3.705.548 7.161 1.715 9.389 3.17 1.665 1.087 3.377 3.027 4.234 4.796 1.38 2.85 1.434 3.265 1.507 11.408l.063 7.14-14.809.063c-15.948.068-16.344.087-21.806 1.014-13.212 2.243-21.315 8.008-24.606 17.505-1.192 3.44-1.65 6.575-1.646 11.261.008 8.858 2.437 15.502 7.565 20.692 5.258 5.323 12.112 8.256 22.342 9.562 2.667.341 10.983.473 14.678.235 11.01-.712 18.873-2.954 24.622-7.023 5.026-3.556 8.172-8.3 9.766-14.724 1.104-4.452 1.052-3.125 1.119-28.27.042-15.954.006-23.409-.122-24.839-1.807-20.23-17.65-29.381-48.351-27.926m58.139 2.93c-2.818.588-4.042 2.429-3.616 5.443.153 1.084 17.849 66.479 20.004 73.923 2.134 7.373 4.423 11.917 7.65 15.184 2.758 2.794 5.702 4.28 10.034 5.069 3.086.561 8.621.315 11.325-.503.445-.135.831-.222.859-.193.1.099-1.756 5.317-2.571 7.231-3.275 7.683-7.227 11.741-13.494 13.856-2.042.689-4.184 1.126-7.622 1.555-3.721.464-4.87.945-5.716 2.391-.824 1.409-.652 4.137.512 8.166.743 2.568 1.649 3.795 3.378 4.573 1.332.6 3.335.698 6.807.331 9.755-1.029 16.813-4.157 22.67-10.048 5.602-5.634 9.715-13.537 13.018-25.014.272-.944 5.758-22.784 12.192-48.534l11.697-46.818.011-1.879c.009-1.638-.036-1.966-.349-2.553-.467-.875-1.125-1.417-2.288-1.886-.891-.36-1.14-.379-4.853-.38-3.338-.002-4.058.042-4.892.299-2.571.789-3.931 2.17-4.899 4.973-.209.605-4.093 16.579-8.632 35.498-4.539 18.919-8.403 34.95-8.588 35.624-.78 2.852-2.28 5.684-3.53 6.67-1.697 1.338-3.293 1.727-6.637 1.617-1.871-.061-2.7-.161-3.526-.426-2.527-.807-4.174-2.834-5.537-6.815-.273-.8-4.816-17.319-10.095-36.709-7.223-26.531-9.739-35.55-10.17-36.447-1.012-2.109-2.256-3.22-4.391-3.921-.868-.285-1.516-.34-4.519-.381-1.928-.026-3.833.021-4.232.104m-54.127 53.774c-5.271.38-9.508 1.444-12.321 3.094-2.996 1.758-4.77 4.198-5.672 7.803-.303 1.211-.357 1.888-.36 4.528-.003 2.694.045 3.3.366 4.576 2.033 8.09 9.715 11.593 23.852 10.874 13.293-.676 19.021-3.855 20.902-11.599.318-1.312.343-1.961.403-10.428l.064-9.029-12.688.024c-6.978.013-13.524.083-14.546.157" clip-rule="evenodd"/></g><defs><clipPath id="a"><path fill="#fff" d="M0 0h620v595H0z"/></clipPath></defs></svg>

<svg width="620" height="595" viewBox="0 0 620 595" fill="none" xmlns="http://www.w3.org/2000/svg">
<g clip-path="url(#clip0_98_631)">
<path d="M310.6 595.3C146.3 595.3 13 462 13 297.6C13 133.3 146.3 0 310.6 0C475 0 608.3 133.3 608.3 297.6C608.3 462 475 595.3 310.6 595.3Z" fill="white"/>
<path fill-rule="evenodd" clip-rule="evenodd" d="M490.672 185.372C490.37 185.576 489.955 185.991 489.751 186.295L489.38 186.846V194.56V202.273L489.749 202.829C489.951 203.134 490.444 203.55 490.843 203.752C491.564 204.116 491.626 204.119 498.796 204.119C504.531 204.119 506.133 204.073 506.556 203.896C507.249 203.606 507.917 202.798 508.135 201.987C508.249 201.562 508.292 198.858 508.261 194.098L508.214 186.855L507.809 186.263C507.587 185.937 507.136 185.52 506.809 185.335C506.232 185.011 505.975 185 498.718 185H491.222L490.672 185.372ZM510.497 204.422C510.138 204.587 509.574 205.023 509.242 205.391C508.126 206.633 508.132 206.557 508.134 217.998C508.135 223.622 508.182 228.5 508.238 228.839C508.415 229.914 509.25 231.074 510.252 231.639L511.149 232.145L521.728 232.191C533.491 232.243 533.401 232.25 534.652 231.177C535.035 230.849 535.468 230.256 535.671 229.783C536.024 228.961 536.025 228.933 535.98 217.874L535.934 206.79L535.441 205.99C535.135 205.494 534.644 205.002 534.149 204.696L533.351 204.201L522.25 204.162C511.786 204.125 511.112 204.14 510.497 204.422ZM474.436 232.398C473.151 232.809 471.952 233.865 471.33 235.135C470.898 236.015 470.87 236.209 470.818 238.64L470.763 241.214H467.789C457.82 241.214 454.029 243.219 452.653 249.221L452.297 250.774L452.199 288.522C452.109 323.071 452.078 326.374 451.827 327.492C449.872 336.198 444.111 340.022 432.146 340.552C422.642 340.974 415.563 339.449 411.704 336.148C409.251 334.051 407.92 331.747 406.988 327.987C406.645 326.6 406.644 326.54 406.542 288.849C406.448 254.473 406.415 250.981 406.167 249.757C405.151 244.752 402.833 242.603 397.361 241.591C395.557 241.258 383.378 241.099 380.48 241.371C373.173 242.057 370.239 244.697 369.538 251.217C369.304 253.393 369.303 323.322 369.537 326.927C370.402 340.266 375.148 351.004 383.554 358.644C392.12 366.43 403.913 370.905 419.753 372.38C423.585 372.737 434.245 372.786 438.016 372.465C454.904 371.025 467.269 366.253 475.978 357.817C483.146 350.874 487.355 342.032 488.804 330.876C489.293 327.111 489.375 322.187 489.378 296.17L489.38 269.99L496.84 269.942C504.257 269.894 504.305 269.891 505.056 269.516C506.278 268.907 507.094 268.095 507.677 266.907L508.214 265.815V251.022V236.23L507.782 235.307C507.232 234.132 506.231 233.128 505.058 232.577L504.137 232.145L489.788 232.111C475.93 232.078 475.404 232.088 474.436 232.398ZM105.698 241.222C99.4995 241.565 94.9508 243.179 91.7174 246.183C90.27 247.528 89.3077 248.873 88.3162 250.937C87.379 252.888 86.965 254.206 86.4175 256.984L86.063 258.781L86.0108 311.809C85.9792 344.131 86.0183 365.219 86.1111 365.817C86.5429 368.597 87.7706 370.047 90.2887 370.752C91.3912 371.061 96.1296 371.212 97.8792 370.994C100.508 370.667 102.033 369.791 102.876 368.123C103.729 366.437 103.729 366.423 103.736 344.614L103.741 324.392H122.624C134.037 324.392 142.374 324.325 143.699 324.223C154.028 323.431 161.802 320.895 167.906 316.327C169.609 315.052 172.206 312.425 173.558 310.609C178.781 303.596 181.352 293.244 180.97 280.76C180.558 267.267 177.195 257.937 170.387 251.396C163.747 245.018 154.315 241.777 140.756 241.216C136.368 241.034 109.01 241.039 105.698 241.222ZM470.827 253.486L470.873 265.808L471.297 266.714C472.134 268.503 473.43 269.487 475.362 269.801C475.97 269.9 479.137 269.973 482.828 269.974L489.238 269.975L489.176 260.129C489.115 250.614 489.101 250.238 488.754 248.911C487.567 244.37 485.021 242.359 479.434 241.548C478.761 241.451 476.539 241.324 474.496 241.267L470.782 241.164L470.827 253.486ZM108.511 258.289C105.804 258.89 104.395 260.477 103.91 263.473C103.803 264.134 103.743 272.208 103.743 286.119L103.741 307.737L123.431 307.679C145.12 307.616 144.551 307.641 148.875 306.568C152.933 305.562 155.578 304.173 157.877 301.842C159.935 299.755 161.128 297.542 162.035 294.127C163.547 288.433 163.578 278.283 162.101 272.386C160.026 264.098 155.256 260.031 145.822 258.504C143.66 258.154 143.219 258.145 126.57 258.105C112.548 258.071 109.349 258.103 108.511 258.289ZM212.095 269.829C205.825 270.126 197.811 271.228 194.811 272.206C192.456 272.973 191.11 274.125 190.484 275.908C190.196 276.728 190.113 277.419 190.044 279.553C189.916 283.538 190.344 285.362 191.704 286.618C193.08 287.888 194.591 287.986 198.969 287.089C208.045 285.229 220.661 284.657 228.15 285.765C231.855 286.313 235.311 287.48 237.539 288.935C239.204 290.022 240.916 291.962 241.773 293.731C243.153 296.581 243.207 296.996 243.28 305.139L243.343 312.279L228.534 312.342C212.586 312.41 212.19 312.429 206.728 313.356C193.516 315.599 185.413 321.364 182.122 330.861C180.93 334.301 180.472 337.436 180.476 342.122C180.484 350.98 182.913 357.624 188.041 362.814C193.299 368.137 200.153 371.07 210.383 372.376C213.05 372.717 221.366 372.849 225.061 372.611C236.071 371.899 243.934 369.657 249.683 365.588C254.709 362.032 257.855 357.288 259.449 350.864C260.553 346.412 260.501 347.739 260.568 322.594C260.61 306.64 260.574 299.185 260.446 297.755C258.639 277.525 242.796 268.374 212.095 269.829ZM270.234 272.759C267.416 273.347 266.192 275.188 266.618 278.202C266.771 279.286 284.467 344.681 286.622 352.125C288.756 359.498 291.045 364.042 294.272 367.309C297.03 370.103 299.974 371.589 304.306 372.378C307.392 372.939 312.927 372.693 315.631 371.875C316.076 371.74 316.462 371.653 316.49 371.682C316.59 371.781 314.734 376.999 313.919 378.913C310.644 386.596 306.692 390.654 300.425 392.769C298.383 393.458 296.241 393.895 292.803 394.324C289.082 394.788 287.933 395.269 287.087 396.715C286.263 398.124 286.435 400.852 287.599 404.881C288.342 407.449 289.248 408.676 290.977 409.454C292.309 410.054 294.312 410.152 297.784 409.785C307.539 408.756 314.597 405.628 320.454 399.737C326.056 394.103 330.169 386.2 333.472 374.723C333.744 373.779 339.23 351.939 345.664 326.189L357.361 279.371L357.372 277.492C357.381 275.854 357.336 275.526 357.023 274.939C356.556 274.064 355.898 273.522 354.735 273.053C353.844 272.693 353.595 272.674 349.882 272.673C346.544 272.671 345.824 272.715 344.99 272.972C342.419 273.761 341.059 275.142 340.091 277.945C339.882 278.55 335.998 294.524 331.459 313.443C326.92 332.362 323.056 348.393 322.871 349.067C322.091 351.919 320.591 354.751 319.341 355.737C317.644 357.075 316.048 357.464 312.704 357.354C310.833 357.293 310.004 357.193 309.178 356.928C306.651 356.121 305.004 354.094 303.641 350.113C303.368 349.313 298.825 332.794 293.546 313.404C286.323 286.873 283.807 277.854 283.376 276.957C282.364 274.848 281.12 273.737 278.985 273.036C278.117 272.751 277.469 272.696 274.466 272.655C272.538 272.629 270.633 272.676 270.234 272.759ZM216.107 326.533C210.836 326.913 206.599 327.977 203.786 329.627C200.79 331.385 199.016 333.825 198.114 337.43C197.811 338.641 197.757 339.318 197.754 341.958C197.751 344.652 197.799 345.258 198.12 346.534C200.153 354.624 207.835 358.127 221.972 357.408C235.265 356.732 240.993 353.553 242.874 345.809C243.192 344.497 243.217 343.848 243.277 335.381L243.341 326.352L230.653 326.376C223.675 326.389 217.129 326.459 216.107 326.533Z" fill="#A6C307"/>
</g>
<defs>
<clipPath id="clip0_98_631">
<rect width="620" height="595" fill="white"/>
</clipPath>
</defs>
</svg>
